X: 93
M:6/8
L:1/8
K:D
dfe dcB | AdF E2D | FAA AFA | Bee e2f |
dfe dcB | FdF E2D | FAA AFA | Bdd d2:|
|:g|\
faa afd | gbb bag | faa agf | gee e2f |
faa agf | gbb bag | fed dge | fdd d2|]
g|\
faa afd | gbb bag | faa agf | gee e2g |
faa faa | gbb gbb | fed ege | fdd d2|]


